mscore/mscore/data/icons-dark/acciaccatura.svg

<?xml version="1.0" encoding="UTF-8" standalone="no"?>
<!-- Created with Inkscape (http://www.inkscape.org/) -->

<svg
   xmlns:dc="http://purl.org/dc/elements/1.1/"
   xmlns:cc="http://creativecommons.org/ns#"
   xmlns:rdf="http://www.w3.org/1999/02/22-rdf-syntax-ns#"
   xmlns:svg="http://www.w3.org/2000/svg"
   xmlns="http://www.w3.org/2000/svg"
   xmlns:sodipodi="http://sodipodi.sourceforge.net/DTD/sodipodi-0.dtd"
   xmlns:inkscape="http://www.inkscape.org/namespaces/inkscape"
   version="1.0"
   width="128"
   height="128"
   viewBox="-1 -200 1000 1000"
   id="svg34224"
   inkscape:version="0.47 r22583"
   sodipodi:docname="acciaccatura.svg">
  <metadata
     id="metadata9">
    <rdf:RDF>
      <cc:Work
         rdf:about="">
        <dc:format>image/svg+xml</dc:format>
        <dc:type
           rdf:resource="http://purl.org/dc/dcmitype/StillImage" />
      </cc:Work>
    </rdf:RDF>
  </metadata>
  <sodipodi:namedview
     pagecolor="#ffffff"
     bordercolor="#666666"
     borderopacity="1"
     objecttolerance="10"
     gridtolerance="10"
     guidetolerance="10"
     inkscape:pageopacity="0"
     inkscape:pageshadow="2"
     inkscape:window-width="1389"
     inkscape:window-height="1138"
     id="namedview7"
     showgrid="false"
     inkscape:zoom="5.2149125"
     inkscape:cx="29.38153"
     inkscape:cy="63.071931"
     inkscape:window-x="403"
     inkscape:window-y="0"
     inkscape:window-maximized="0"
     inkscape:current-layer="svg34224" />
  <defs
     id="defs7">
    <inkscape:perspective
       sodipodi:type="inkscape:persp3d"
       inkscape:vp_x="0 : 64 : 1"
       inkscape:vp_y="0 : 1000 : 0"
       inkscape:vp_z="128 : 64 : 1"
       inkscape:persp3d-origin="64 : 42.666667 : 1"
       id="perspective11" />
    <inkscape:perspective
       id="perspective2825"
       inkscape:persp3d-origin="0.5 : 0.33333333 : 1"
       inkscape:vp_z="1 : 0.5 : 1"
       inkscape:vp_y="0 : 1000 : 0"
       inkscape:vp_x="0 : 0.5 : 1"
       sodipodi:type="inkscape:persp3d" />
  </defs>
  <g
     transform="matrix(4.3344572,0,0,3.6747709,-118.85296,-3199.656)"
     id="g8293">
    <path
       d="m 98.497795,842.17676 c -3.746195,1.47097 -2.386457,6.03817 -2.645828,9.16727 0,37.52764 0,75.05528 0,112.58291 -2.323364,-4.76044 -8.485433,-4.70383 -13.04995,-5.05226 -12.175715,0.28476 -23.769287,7.42402 -30.47938,17.43802 -4.671697,6.78524 -6.139878,17.15958 0.313646,23.3465 7.974158,7.2262 20.191166,5.92 29.237977,1.5549 10.122572,-4.85833 19.45236,-14.15167 20.4453,-25.82178 -0.014,-29.74812 -0.028,-59.49625 -0.042,-89.24437 10.48767,11.94551 22.25392,24.08652 26.0167,40.02734 2.45431,13.00383 -1.32709,26.25813 -6.08633,38.294 -0.88499,6.78939 9.4076,5.88994 9.0478,-0.50025 5.42644,-15.75163 8.44454,-33.63964 2.05119,-49.58598 -7.87982,-20.36215 -24.1333,-36.64697 -29.72141,-58.02253 -1.12761,-3.86173 -1.42226,-7.86141 -1.39898,-11.85471 -0.27689,-1.74026 -2.08047,-2.4916 -3.688735,-2.32906 z"
       style="fill:#000000;fill-opacity:1"
       id="path37431" />
  </g>
  <path
     d="M 182.72836,237.90324 517.14581,-27.507744"
     style="fill:none;stroke:#000000;stroke-width:19.9550972;stroke-linecap:round;stroke-linejoin:miter;stroke-miterlimit:4;stroke-opacity:1;stroke-dasharray:none"
     id="path2160" />
  <g
     transform="matrix(6.0814985,0,0,5.8487615,235.42282,-5117.5073)"
     id="g8293-5">
    <path
       d="m 98.497795,842.17676 c -3.746195,1.47097 -2.386457,6.03817 -2.645828,9.16727 0,37.52764 0,75.05528 0,112.58291 -2.323364,-4.76044 -8.485433,-4.70383 -13.04995,-5.05226 -12.175715,0.28476 -23.769287,7.42402 -30.47938,17.43802 -4.671697,6.78524 -6.139878,17.15958 0.313646,23.3465 7.974158,7.2262 20.191166,5.92 29.237977,1.5549 10.122572,-4.85833 19.45236,-14.15167 20.4453,-25.82178 -1.66766,-43.72348 0.37592,-126.00098 -0.13303,-130.8865 -0.27689,-1.74026 -2.08047,-2.4916 -3.688735,-2.32906 z"
       style="fill:#000000;fill-opacity:1"
       id="path37431-4"
       sodipodi:nodetypes="cccccccccc" />
  </g>
  <path
     style="fill:none;stroke:#000000;stroke-width:3;stroke-linecap:round;stroke-linejoin:miter;stroke-opacity:1;stroke-miterlimit:4;stroke-dasharray:none"
     d="m 28.188392,94.44239 c 1.754516,12.42509 22.694662,18.83217 31.83179,16.68293"
     id="path2842"
     transform="matrix(7.8125,0,0,7.8125,-1,-200)"
     sodipodi:nodetypes="cc" />
</svg>

<?xml version="1.0" encoding="UTF-8" standalone="no"?>
<!-- Created with Inkscape (http://www.inkscape.org/) -->
<svg
   xmlns:svg="http://www.w3.org/2000/svg"
   xmlns="http://www.w3.org/2000/svg"
   version="1.0"
   width="128"
   height="128"
   viewBox="-1 -200 1000 1000"
   id="svg34224">
  <defs
     id="defs7" />
  <g
     transform="matrix(6.0558956,0,0,5.9415537,-53.624698,-5180.1091)"
     id="g8293">
    <path
       d="M 98.497795,842.17676 C 94.7516,843.64773 96.111338,848.21493 95.851967,851.34403 C 95.851967,888.87167 95.851967,926.39931 95.851967,963.92694 C 93.528603,959.1665 87.366534,959.22311 82.802017,958.87468 C 70.626302,959.15944 59.03273,966.2987 52.322637,976.3127 C 47.65094,983.09794 46.182759,993.47228 52.636283,999.6592 C 60.610441,1006.8854 72.827449,1005.5792 81.87426,1001.2141 C 91.996832,996.35577 101.32662,987.06243 102.31956,975.39232 C 102.30556,945.6442 102.29156,915.89607 102.27756,886.14795 C 112.76523,898.09346 124.53148,910.23447 128.29426,926.17529 C 130.74857,939.17912 126.96717,952.43342 122.20793,964.46929 C 121.32294,971.25868 131.61553,970.35923 131.25573,963.96904 C 136.68217,948.21741 139.70027,930.3294 133.30692,914.38306 C 125.4271,894.02091 109.17362,877.73609 103.58551,856.36053 C 102.4579,852.4988 102.16325,848.49912 102.18653,844.50582 C 101.90964,842.76556 100.10606,842.01422 98.497795,842.17676 z "
       style="fill:#000000;fill-opacity:1"
       id="path37431" />
  </g>
  <path
     d="M 291.24184,456.82139 L 763.76446,27.881499"
     style="fill:none;fill-opacity:0.75;fill-rule:evenodd;stroke:#000000;stroke-width:30.15500832;stroke-linecap:round;stroke-linejoin:miter;stroke-miterlimit:4;stroke-dasharray:none;stroke-opacity:1"
     id="path2160" />
</svg>
